packages/assets/static/images/icons/mountains.svg

<svg width="24" height="24" viewBox="0 0 24 24" xmlns="http://www.w3.org/2000/svg">
<path d="M15.3749 8.625C15.8941 8.625 16.4016 8.47105 16.8333 8.18261C17.265 7.89417 17.6014 7.4842 17.8001 7.00455C17.9988 6.52489 18.0508 5.99709 17.9495 5.48789C17.8482 4.97869 17.5982 4.51096 17.2311 4.14385C16.864 3.77673 16.3963 3.52673 15.8871 3.42544C15.3779 3.32415 14.8501 3.37614 14.3704 3.57482C13.8907 3.7735 13.4808 4.10995 13.1923 4.54163C12.9039 4.97331 12.7499 5.48083 12.7499 6C12.7499 6.69619 13.0265 7.36387 13.5188 7.85616C14.0111 8.34844 14.6788 8.625 15.3749 8.625ZM15.3749 4.875C15.5974 4.875 15.815 4.94098 16 5.0646C16.185 5.18821 16.3292 5.36392 16.4143 5.56948C16.4995 5.77505 16.5217 6.00125 16.4783 6.21948C16.4349 6.43771 16.3278 6.63816 16.1704 6.7955C16.0131 6.95283 15.8126 7.05998 15.5944 7.10338C15.3762 7.14679 15.15 7.12451 14.9444 7.03937C14.7389 6.95422 14.5632 6.81002 14.4395 6.62502C14.3159 6.44001 14.2499 6.22251 14.2499 6C14.2499 5.70163 14.3685 5.41548 14.5794 5.20451C14.7904 4.99353 15.0766 4.875 15.3749 4.875ZM23.8949 19.4925L18.7799 10.86C18.648 10.6351 18.4593 10.4489 18.2328 10.3199C18.0062 10.1909 17.7497 10.1237 17.489 10.125C17.2284 10.1236 16.972 10.1908 16.7456 10.3198C16.5192 10.4488 16.3307 10.6351 16.199 10.86L13.7465 15L9.54276 7.86563C9.41029 7.6405 9.22133 7.45386 8.99458 7.32419C8.76783 7.19452 8.51115 7.12631 8.24994 7.12631C7.98873 7.12631 7.73205 7.19452 7.5053 7.32419C7.27855 7.45386 7.0896 7.6405 6.95713 7.86563L0.104005 19.4944C0.0369245 19.6083 0.00113451 19.7379 0.00026054 19.87C-0.000613433 20.0022 0.0334596 20.1323 0.0990286 20.247C0.164597 20.3618 0.259333 20.4572 0.37364 20.5236C0.487947 20.59 0.617764 20.6249 0.749943 20.625H23.2499C23.3823 20.625 23.5123 20.5899 23.6268 20.5234C23.7412 20.4568 23.836 20.3612 23.9015 20.2462C23.967 20.1311 24.0009 20.0008 23.9998 19.8685C23.9986 19.7361 23.9625 19.6064 23.8949 19.4925ZM8.24994 8.625L10.4596 12.375H6.04026L8.24994 8.625ZM2.06244 19.125L5.15619 13.875H11.3437L13.1006 16.8563L14.4374 19.125H2.06244ZM16.1784 19.125L14.6165 16.4738L17.489 11.625L21.9374 19.125H16.1784Z"/>
</svg>

<svg viewBox="0 0 24 24" xmlns="http://www.w3.org/2000/svg" aria-hidden="true" fill="currentColor"><path d="M15.375 8.625a2.625 2.625 0 1 0 0-5.25 2.625 2.625 0 0 0 0 5.25m0-3.75a1.125 1.125 0 1 1 0 2.25 1.125 1.125 0 0 1 0-2.25m8.52 14.618L18.78 10.86a1.49 1.49 0 0 0-1.291-.735 1.49 1.49 0 0 0-1.29.735L13.746 15 9.543 7.866a1.5 1.5 0 0 0-2.586 0L.104 19.494a.75.75 0 0 0 .646 1.131h22.5a.75.75 0 0 0 .645-1.133M8.25 8.625l2.21 3.75H6.04zm-6.188 10.5 3.094-5.25h6.188l1.757 2.981 1.336 2.269zm14.116 0-1.562-2.651 2.873-4.849 4.448 7.5z"/></svg>
